X:1
T:Title
%%score ( 1 2 ) { 3 | 4 }
L:1/8
Q:1/4=80
M:3/4
K:F
V:1 treble nm="Grand Piano, SOPRANO ALTO"
V:2 treble 
V:3 bass nm="Grand Piano, TENOR BASS"
V:4 bass 
V:1
 z2 z2 FG | A4 z2 | [FA]2 [CF]2 [CF][FA] | [EG][GB] [FA]2 [EG]2 | [FA]4 FG | A4 z2 | %6
w: 1.~Man y~|souls~|dy ing,~ Sin~ and~|sor row~ is~ their~|lot;~ Dark ness~|shrouds~|
 [FA]2 [CF]2 [CF][FA] | [EG][GB] [FA]2 [CG]2 | [CF]4 AB | c4 z2 | [Fc]2 [FA]2 FG | A4 z2 | %12
w: man tle,~ All~ be|cause~ we~ love~ them~|not.~ All~ be|cause~|love~ them,~ Mil lions~|fill~|
 [EG]4 FG | A4 z2 | [FA]2 [CF]2 [CF][FA] | [FG][FB] [FA]2 [CG]2 | [CF]4 z2 |] %17
w: grave;~ Broth er,~|can~|per ish,~ When~ a~|lit tle~ love~ would~|save?~|
V:2
 x6 | FF F[Fc] [Fc][FB] | x6 | x6 | x6 | FF F[Fc] [Fc][FB] | x6 | x6 | x6 | FF F[FA] [Ff][Fd] | %10
w: |* * * to * are~||||* * * them~ * its~||||* * * we~ * not~|
 x6 | FF F[Fc] [EB][FA] | x6 | FF F[Fc] [Fc][FB] | x6 | x6 | x6 |] %17
w: |* * * the~ * then~||* * * you~ * them~||||
V:3
 z2 z2 A,B, | C3 A, A,[K:treble]D | C2 A,2 A,C | CC C2 C2 | C4[K:bass] A,B, | C3 A, A,[K:treble]D | %6
 C2 A,2 A,C | CC C2[K:bass] B,2 | A,4 F,G, | A,4 A,B, | A,2 C2 A,B, | C3 C CC | C4[K:bass] A,B, | %13
 C3 A, A,[K:treble]D | C2 A,2 A,C | B,D C2 B,2 | A,4 z2 |] %17
V:4
 z6 | F,F, F,F, F,F, | F,2 F,2 F,F, | C,C, C,2 C,2 | F,4 z2 | F,F, F,F, F,F, | F,2 F,2 F,F, | %7
 C,C, C,2 C,2 | F,4 z2 | F,F, F,F, F,F, | F,2 F,2 z2 | F,F, F,A, G,F, | C,4 z2 | F,F, F,F, F,F, | %14
 F,2 F,2 F,F, | B,,B,, C,2 C,2 | [F,,F,]4 z2 |] %17

